icons/desktop/16/svg/page-thumbnails-16.svg

<svg width="16" height="16" viewBox="0 0 16 16" fill="none" xmlns="http://www.w3.org/2000/svg">
<path fill-rule="evenodd" clip-rule="evenodd" d="M4.625 8.75C4.86961 8.75 5.15608 8.76064 5.47461 8.79492C6.49438 8.90503 7.25 9.77721 7.25 10.7852V13.9639C7.25 15.0009 6.46296 15.8507 5.44629 15.957C5.19233 15.9834 4.91742 16 4.625 16C4.38039 16 4.09392 15.9894 3.77539 15.9551C2.75562 15.845 2 14.9728 2 13.9648V10.7861C2 9.74909 2.78704 8.89929 3.80371 8.79297C4.05767 8.76659 4.33258 8.75 4.625 8.75ZM4.625 10.25C4.38966 10.25 4.16782 10.2636 3.95996 10.2852C3.69284 10.313 3.5 10.5313 3.5 10.7861V13.9648C3.5 14.2249 3.69634 14.437 3.93652 14.4629C4.19391 14.4906 4.42567 14.5 4.625 14.5C4.86034 14.5 5.08218 14.4864 5.29004 14.4648C5.55716 14.437 5.75 14.2187 5.75 13.9639V10.7852C5.75 10.5251 5.55366 10.313 5.31348 10.2871C5.05609 10.2594 4.82433 10.25 4.625 10.25Z" fill="black"/>
<path fill-rule="evenodd" clip-rule="evenodd" d="M11.375 8.75C11.6196 8.75 11.9061 8.76064 12.2246 8.79492C13.2444 8.90503 14 9.77721 14 10.7852V13.9639C14 15.0009 13.213 15.8507 12.1963 15.957C11.9423 15.9834 11.6674 16 11.375 16C11.1304 16 10.8439 15.9894 10.5254 15.9551C9.50562 15.845 8.75 14.9728 8.75 13.9648V10.7861C8.75 9.74909 9.53704 8.89929 10.5537 8.79297C10.8077 8.76659 11.0826 8.75 11.375 8.75ZM11.375 10.25C11.1397 10.25 10.9178 10.2636 10.71 10.2852C10.4428 10.313 10.25 10.5313 10.25 10.7861V13.9648C10.25 14.2249 10.4463 14.437 10.6865 14.4629C10.9439 14.4906 11.1757 14.5 11.375 14.5C11.6103 14.5 11.8322 14.4864 12.04 14.4648C12.3072 14.437 12.5 14.2187 12.5 13.9639V10.7852C12.5 10.5251 12.3037 10.313 12.0635 10.2871C11.8061 10.2594 11.5743 10.25 11.375 10.25Z" fill="black"/>
<path fill-rule="evenodd" clip-rule="evenodd" d="M4.625 0C4.86961 0 5.15608 0.0106354 5.47461 0.0449219C6.49438 0.155034 7.25 1.02721 7.25 2.03516V5.21387C7.25 6.25091 6.46296 7.10071 5.44629 7.20703C5.19233 7.23341 4.91742 7.25 4.625 7.25C4.38039 7.25 4.09392 7.23936 3.77539 7.20508C2.75562 7.09497 2 6.22279 2 5.21484V2.03613C2 0.999086 2.78704 0.149285 3.80371 0.0429688C4.05767 0.0165892 4.33258 0 4.625 0ZM4.625 1.5C4.38966 1.5 4.16782 1.51357 3.95996 1.53516C3.69284 1.56303 3.5 1.78132 3.5 2.03613V5.21484C3.5 5.47487 3.69634 5.68696 3.93652 5.71289C4.19391 5.74059 4.42567 5.75 4.625 5.75C4.86034 5.75 5.08218 5.73643 5.29004 5.71484C5.55716 5.68697 5.75 5.46868 5.75 5.21387V2.03516C5.75 1.77513 5.55366 1.56304 5.31348 1.53711C5.05609 1.50941 4.82433 1.5 4.625 1.5Z" fill="black"/>
<path fill-rule="evenodd" clip-rule="evenodd" d="M11.375 0C11.6196 0 11.9061 0.0106354 12.2246 0.0449219C13.2444 0.155034 14 1.02721 14 2.03516V5.21387C14 6.25091 13.213 7.10071 12.1963 7.20703C11.9423 7.23341 11.6674 7.25 11.375 7.25C11.1304 7.25 10.8439 7.23936 10.5254 7.20508C9.50562 7.09497 8.75 6.22279 8.75 5.21484V2.03613C8.75 0.999086 9.53704 0.149285 10.5537 0.0429688C10.8077 0.0165892 11.0826 0 11.375 0ZM11.375 1.5C11.1397 1.5 10.9178 1.51357 10.71 1.53516C10.4428 1.56303 10.25 1.78132 10.25 2.03613V5.21484C10.25 5.47487 10.4463 5.68696 10.6865 5.71289C10.9439 5.74059 11.1757 5.75 11.375 5.75C11.6103 5.75 11.8322 5.73643 12.04 5.71484C12.3072 5.68697 12.5 5.46868 12.5 5.21387V2.03516C12.5 1.77513 12.3037 1.56304 12.0635 1.53711C11.8061 1.50941 11.5743 1.5 11.375 1.5Z" fill="black"/>
</svg>

<!-- This Source Code Form is subject to the terms of the Mozilla Public
   - License, v. 2.0. If a copy of the MPL was not distributed with this
   - file, You can obtain one at http://mozilla.org/MPL/2.0/. -->
<svg xmlns="http://www.w3.org/2000/svg" width="16" height="16" fill="context-fill" fill-opacity="context-fill-opacity" viewBox="0 0 16 16">
    <path fill-rule="evenodd" d="M4.625 8.75c.245 0 .531.01.85.045a2 2 0 0 1 1.775 1.99v3.179a2.006 2.006 0 0 1-1.804 1.993 8 8 0 0 1-1.67-.002A2 2 0 0 1 2 13.965v-3.179C2 9.75 2.787 8.9 3.804 8.793q.382-.041.821-.043m0 1.5a6 6 0 0 0-.665.035.506.506 0 0 0-.46.501v3.179a.5.5 0 0 0 .437.498 6.4 6.4 0 0 0 1.353.002.506.506 0 0 0 .46-.501v-3.179a.5.5 0 0 0-.437-.498 6 6 0 0 0-.688-.037M11.375 8.75c.245 0 .531.01.85.045A2 2 0 0 1 14 10.785v3.179a2.006 2.006 0 0 1-1.804 1.993 8 8 0 0 1-1.67-.002 2 2 0 0 1-1.776-1.99v-3.179c0-1.037.787-1.887 1.804-1.993q.382-.041.821-.043m0 1.5a6 6 0 0 0-.665.035.506.506 0 0 0-.46.501v3.179a.5.5 0 0 0 .437.498 6.4 6.4 0 0 0 1.353.002.506.506 0 0 0 .46-.501v-3.179a.5.5 0 0 0-.437-.498 6 6 0 0 0-.688-.037M4.625 0c.245 0 .531.01.85.045a2 2 0 0 1 1.775 1.99v3.179a2.006 2.006 0 0 1-1.804 1.993 8 8 0 0 1-1.67-.002A2 2 0 0 1 2 5.215V2.036C2 1 2.787.15 3.804.043Q4.186.002 4.625 0m0 1.5q-.353.002-.665.035a.506.506 0 0 0-.46.501v3.179a.5.5 0 0 0 .437.498 6.4 6.4 0 0 0 1.353.002.506.506 0 0 0 .46-.501V2.035a.5.5 0 0 0-.437-.498 6 6 0 0 0-.688-.037M11.375 0c.245 0 .531.01.85.045A2 2 0 0 1 14 2.035v3.179a2.006 2.006 0 0 1-1.804 1.993 8 8 0 0 1-1.67-.002 2 2 0 0 1-1.776-1.99V2.036C8.75 1 9.537.15 10.554.043A8 8 0 0 1 11.375 0m0 1.5q-.353.002-.665.035a.506.506 0 0 0-.46.501v3.179a.5.5 0 0 0 .437.498 6.4 6.4 0 0 0 1.353.002.506.506 0 0 0 .46-.501V2.035a.5.5 0 0 0-.437-.498 6 6 0 0 0-.688-.037" clip-rule="evenodd" />
</svg>
